apps/statesvisited/state-images/GA.svg

<svg height="635" width="1182" xmlns="http://www.w3.org/2000/svg"><path d="m776.65512 436.55715s-1.26-10.07937.4199-13.43916c1.6799-3.35978 6.7196-15.53902 6.7196-15.53902s-11.7592-12.5992-14.6991-16.37896c-2.9398-3.77977-13.8591-11.33929-20.1587-19.73876s-.8399-7.13955-9.2394-9.23942-9.6594-1.67989-8.3995-3.35979c1.2599-1.67989 1.6799-5.03968 1.6799-5.03968l-39.0575 3.35979s1.2599 20.5787 3.3598 25.61838c2.0998 5.03969 13.4391 28.97818 13.4391 31.49802s-3.7797 4.19974-2.9398 10.07937c.84 5.87963 2.5198 13.01918 2.5198 13.01918l5.0397 8.81944 44.0972-2.93982s3.3598 2.93982 5.0397 2.93982 2.0999-10.49934 2.0999-10.49934z" fill="#20639b" fill-rule="evenodd" opacity=".9" stroke="#000"/></svg>

<?xml version="1.0" encoding="UTF-8" standalone="no"?>
<!-- Created with Inkscape (http://www.inkscape.org/) -->
<svg
   xmlns:dc="http://purl.org/dc/elements/1.1/"
   xmlns:cc="http://web.resource.org/cc/"
   xmlns:rdf="http://www.w3.org/1999/02/22-rdf-syntax-ns#"
   xmlns:svg="http://www.w3.org/2000/svg"
   xmlns="http://www.w3.org/2000/svg"
   xmlns:xlink="http://www.w3.org/1999/xlink"
   xmlns:sodipodi="http://sodipodi.sourceforge.net/DTD/sodipodi-0.dtd"
   xmlns:inkscape="http://www.inkscape.org/namespaces/inkscape"
   id="svg1923"
   sodipodi:version="0.32"
   inkscape:version="0.44"
   width="1182"
   height="635"
   version="1.0"
   sodipodi:docbase="/Users/amyshore/Desktop"
   sodipodi:docname="usa.svg">
  <metadata
     id="metadata1928">
    <rdf:RDF>
      <cc:Work
         rdf:about="">
        <dc:format>image/svg+xml</dc:format>
        <dc:type
           rdf:resource="http://purl.org/dc/dcmitype/StillImage" />
      </cc:Work>
    </rdf:RDF>
  </metadata>
  <defs
     id="defs1926" />
  <sodipodi:namedview
     inkscape:window-height="752"
     inkscape:window-width="1280"
     inkscape:pageshadow="2"
     inkscape:pageopacity="0.0"
     guidetolerance="10.0"
     gridtolerance="10.0"
     objecttolerance="10.0"
     borderopacity="1.0"
     bordercolor="#666666"
     pagecolor="#ffffff"
     id="base"
     inkscape:zoom="0.59527559"
     inkscape:cx="775.234"
     inkscape:cy="319.32597"
     inkscape:window-x="0"
     inkscape:window-y="22"
     inkscape:current-layer="layer2" />
  <g
     inkscape:groupmode="layer"
     id="layer1"
     inkscape:label="bg"
     style="opacity:1;display:none"
     sodipodi:insensitive="true">
    <image
       xlink:href="ElectoralCollege1996-Large.png"
       sodipodi:absref="/Users/amyshore/Desktop/ElectoralCollege1996-Large.png"
       width="1182"
       height="635"
       id="image1930"
       x="-1.3571358"
       y="1.6798911" />
  </g>
  <g
     inkscape:groupmode="layer"
     id="layer2"
     inkscape:label="vector"
     style="opacity:0.9;display:inline"> <path style="fill:#20639B;fill-opacity:1;fill-rule:evenodd;stroke:black;stroke-width:1px;stroke-linecap:butt;stroke-linejoin:miter;stroke-opacity:1" d="M 776.65512,436.55715 C 776.65512,436.55715 775.39512,426.47778 777.07502,423.11799 C 778.75492,419.75821 783.79462,407.57897 783.79462,407.57897 C 783.79462,407.57897 772.03542,394.97977 769.09552,391.20001 C 766.15572,387.42024 755.23642,379.86072 748.93682,371.46125 C 742.63722,363.06178 748.09692,364.3217 739.69742,362.22183 C 731.29792,360.12196 730.03802,360.54194 731.29792,358.86204 C 732.55782,357.18215 732.97782,353.82236 732.97782,353.82236 L 693.92032,357.18215 C 693.92032,357.18215 695.18022,377.76085 697.28012,382.80053 C 699.37992,387.84022 710.71922,411.77871 710.71922,414.29855 C 710.71922,416.81839 706.93952,418.49829 707.77942,424.37792 C 708.61942,430.25755 710.29922,437.3971 710.29922,437.3971 L 715.33892,446.21654 L 759.43612,443.27672 C 759.43612,443.27672 762.79592,446.21654 764.47582,446.21654 C 766.15572,446.21654 766.57572,435.7172 766.57572,435.7172 L 776.65512,436.55715 z " id="path3708" />   </g>
</svg>
